X:81
%%vocalfont Baskerville10Pro 11
%%pagewidth 7.5in
%%score 1 2
T:Loth to depart
M:6/8
L:1/8
K:Bb
V:1 clef-treble
V:2 clef-bass octave=-1
V:1
AAA[FA]2[Gd]&^F3x3|(c>d)B[FA]3&^F2Gx3|(G>A)[DGB] [C^FA]2[B,G]&Dx2x3|(G>A)[DGB] [C^FA]2[B,G]&Dx2x3|
w:Lie near my dear! why dost* thou rise? The light that shines, comes from* thine eyes,*
V:2
d3[cd]2[Bd]|[Ad]2[Gd][Dd]3|B2GD2E|B,2G,D,2G,|
V:1
AAAA2[DGd]&[EG]3[D^F]2x|(c>d)[DGB][DFA]3&[D^F]x2x3|(d>c)[EGB][EGA]2[DGB]&[D^F]x2x3|[CGc][C^FA]2[B,G]3||
w:'Tis not the day breaks, but* my heart, To think that thou and I must part.
V:2
c3c2B|A2GD3|B,2EC2B,|A,D2G,3||

